!!!OTL: Komm heraus, du traurige Braut, S. 32
!!!id: S0071
**kern
*clefG2
*k[b-]
*F:
{8f
8a
=1
4cc
8cc
8dd
=2
4cc
4cc
=3
8cc
8b-
8b-
8a
=4
4b-}
=5
{8cc
8b-
=6
4a
4f
=7
4g
8b-
8b-
=8
4a
4f
=9
4g
8f}
=10
{8a
=11
4cc
4cc
=12
4dd
4cc
=13
8cc
8b-
8b-
8a
=14
4b-}
=15
{8cc
8b-
=16
4a
4a
=17
4g
4g
=18
4f}
4r
=19
4r
=20
{4f
=21
4b-
8cc
8b-
=22
4a
4f
=23
8g
8f
8g
8a
=24
4g}
=25
{16a
16a
8b
=26
4cc
4cc
=27
4dd
4cc
=28
8cc
8b
8a
8b
=29
4cc}
=30
{8a
8cc
=31
4dd
4dd
=32
4dd
8ee
8dd
=33
8cc
8b-
8a
8b-
=34
4cc}
=35
{4a
=36
4.g
8f
=37
4e
4g
=38
4f}
4r
=39
4r
=40
{4a
=41
2cc
=42
4r
4ff
=43
2cc}
=44
4r
=45
{4b-
=46
8a
8g
8a
8b-
=47
4cc
8b-
8b-
=48
4a}
==
*-
!!!minrhy: 16
!!!meters: 2/4 ]  ZZ[10
!!!cut: Komm heraus, du traurige Braut, S. 32
!!!reg: Luxemburg
!!!trd: Die Bauernhochzeit in fr&uuml;heren Zeiten
!!!rhy1: X_X_  X__X_X_  X__X__  X_X_X_X_  X__   (x2)
!!!rhy2: X_X_  X__X__  X__X_X_  X__X__  X__X_
!!!key: S0071  16  F 2/4 ]  ZZ[10
!!!mod: ACHTTONSKALA DUR ?]  AMBITUS[9b
!!!kad: 4141255153
!!!akz: 5554_3232_5654_321_4322_5655_6655_2-71_55_353_
!!!fot: 'a__b__c__d__e__f__g__h__fw_i__
!!!for: 'a__b__c__cw_av_cv_d__e__f__g__
!!!fok: '^a_Sd_^a_\__^a_~a_~a_\__^a_Sd_
!! PHRAS[AUFTAKTIG]
!!!fkt: Hochzeitslied
!! SPEDENER, G:
!! PR[10] 2K[10] 2G[19] 3K[6] 3G[3] 4A[5] 4Ü[0] 5A[0] 6K[0] 6G[0]
!! 7K[0] 7G[0] 8A[0] MEHR[0] SI[44] ABS[78] SR[29] SP[14]
!! ST[22] 2k[9] 2g[26] 3k[10] 3g[0] 4d[1] 4ü[0] 5d[0] 6k[0] 6g[0]
!! 7k[0] 7g[0] 8d[0] mehr[0] si[46] dm[-2] sr[35] sp[12]
!! 1F[20] 2F[61] 3F[14] 4F[0] LF[0] 2P[4] 3P[0] 4P[0] TRI[0] DF[4] AB[83]
!! TF[0] U3K[0] U3[0] U4[0] U4Ü[0] U5[3] U6K[0] U6[0] U7K[0] U7[0]
!! N1[14] N2K[0] N2[28] N3K[0] N3[27] N4[19] N4Ü[0] N5[10] N6K[0] N6[0]
!!!n7k: 0] N7[0] O1[0] O2K[0] O2[0] O3K[0] O3[0] HÖ[0
!!!RNB: symbol: &uuml;  = u umlaut (UTF-8: Ã¼)
